X:146
U: ~ = !turn!
%%topmargin 3cm
T:by O'Carolan
B:Traditional Irish Fiddle Tunes. Randy Miller and Jack Perron.
Z:Transcribed by Ralph Palmer
R:Reel
M:C
L:1/8
K:G
D2 | D2 G2 G2 A2 | cB AG Bc d2 | e2 A2 A2 G2 | FG EF D2 EF |
G2 G2 GF FA | {GA}G2 FE D2 G2 | FG A2 A2 EG | F2 D2 DE FD |
G2 G2 AG AF | G2 G2 G2 B2 | c3 B A2 Bc | d4 e4 |
d2 B2 cB AG | AG FE D2 EF | G2 G2 AG AF | G2 G2 G2 ::
DC | B,2 D2 D2 EF | G2 D2 B,C D2 | G2 D2 B,C D2 | ED CB, A,3 C |
((3B,A,G,) B,C D2 D2 | E2 C2 D2 B,2 | C2 A,2 D2 G2 | {FG}F2 D2 D2 GF |
E2 C2 C3 D | JE2 C2 C3 E | JF2 D2 D3 E | FG EF D2 Bc |
d2 dB ed cB | cB AG AG FE | D2 G2 AG AF | G2 G2 G2 :|]
